public/images/sponsors/codersrank.svg

<svg width="189" height="80" fill="none" xmlns="http://www.w3.org/2000/svg"><defs/><path d="M2.358 77.6872C.851696 76.177.00401283 74.1322 0 71.9992c0-2.122.846-4.162 2.358-5.687.76756-.7334 1.67305-1.3072 2.664-1.688.99654-.3834 2.05854-.5679 3.126-.543 1.67335-.0402 3.3197.4265 4.723 1.339 1.3702.8953 2.392 2.2334 2.895 3.791H11.12c-.2582-.5353-.6696-.9819-1.182-1.283-.51768-.305-1.11272-.4534-1.713-.427-.57692-.0315-1.15403.0584-1.694.264-.53699.2037-1.02446.5193-1.43.926-.73242.9189-1.13181 2.0589-1.133 3.234 0 1.17.399 2.308 1.134 3.234.403.405.89.72 1.43.926.53966.2054 1.11641.2954 1.693.264.586.039 1.17-.088 1.684-.365.5105-.2741.931-.6898 1.211-1.197h4.571c-.5028 1.5579-1.5247 2.8963-2.895 3.792-1.4034.9121-3.04976 1.3785-4.723 1.338-1.05464.0151-2.10224-.174-3.085-.557-.97729-.3804-1.87048-.9488-2.629-1.673h-.001zm17.294 0c-1.5067-1.5101-2.3547-3.5549-2.359-5.688 0-2.122.846-4.162 2.359-5.687 1.5825-1.4433 3.6481-2.2418 5.79-2.238 2.15 0 4.221.8 5.79 2.238 1.5061 1.51 2.3537 3.5543 2.358 5.687-.0043 2.1331-.8523 4.1779-2.359 5.688-1.5741 1.4602-3.6429 2.2699-5.79 2.266-2.1471.0039-4.2159-.8058-5.79-2.266h.001zm8.837-2.454c.7326-.9185 1.1323-2.0581 1.134-3.233 0-1.17-.4-2.308-1.134-3.234-.8206-.7845-1.9127-1.2213-3.048-1.219-1.14 0-2.235.438-3.047 1.22-.7326.9185-1.1323 2.0581-1.134 3.233 0 1.171.399 2.309 1.134 3.234.8203.7842 1.9121 1.221 3.047 1.219 1.14 0 2.235-.438 3.048-1.219v-.001zm13.103-10.929c2.2786-.087 4.5071.6821 6.247 2.156.7667.7176 1.3792 1.5839 1.8 2.546.4172.9557.6326 1.9872.6326 3.03 0 1.0428-.2154 2.0743-.6326 3.03-.4208.9621-1.0333 1.8284-1.8 2.546-1.7361 1.4805-3.9673 2.2506-6.247 2.156h-5.561v-15.464h5.561zm-1.752 12.64h1.752c.648.0371 1.2966-.0634 1.903-.295.6026-.2293 1.1489-.5854 1.602-1.044.442-.4791.7842-1.0415 1.0065-1.6542.2223-.6128.3204-1.2637.2885-1.9148.0318-.6509-.0664-1.3016-.2887-1.9142-.2223-.6126-.5644-1.1748-1.0063-1.6538-.4531-.4587-.9994-.8147-1.602-1.044-.6065-.2313-1.255-.3315-1.903-.294H39.84v9.814zm22.473-12.714v2.9h-5.714v3.345h5.104v2.9H56.6v3.568h5.714v2.9h-9.599v-15.613h9.598zm7.237 9.516v6.022h-3.885v-15.464h6.247c1.5488-.08 3.0712.4242 4.266 1.413.486.418.874.933 1.137 1.51.263.578.395 1.204.387 1.836-.0184.9307-.3098 1.8355-.838 2.602-.6633.9123-1.6401 1.5475-2.743 1.784l3.885 6.32h-4.418l-3.58-6.023h-.458zm0-6.616v3.717h2.362c.253.01.505-.03.742-.12.236-.09.45-.226.63-.4.175-.178.312-.388.404-.617.091-.23.135-.475.128-.722.0067-.2465-.0369-.4918-.128-.721-.0923-.2307-.23-.4406-.405-.617-.1804-.1751-.3948-.3113-.63-.4-.2364-.0897-.4884-.1305-.741-.12H69.55zm16.608-.075c-.4378-.0237-.8699.1081-1.22.372-.159.138-.284.311-.363.505-.08.193-.111.402-.093.61-.0034.2071.0354.4128.1139.6044.0786.1917.1953.3654.3431.5106.32.31.712.539 1.143.67l1.523.445 1.676.52 1.524.744c.487.317.881.753 1.143 1.264.31.6.466 1.262.457 1.933-.006.6459-.1599 1.2818-.45 1.859-.2919.5814-.7109 1.0896-1.226 1.487-1.2259.9867-2.7713 1.4891-4.343 1.412-1.5481.0787-3.0777-.3662-4.342-1.263-.5463-.4201-.9844-.9645-1.278-1.588-.291-.6184-.4276-1.2982-.398-1.981h4.114c-.012.254.032.507.128.742.097.236.244.449.431.625.1899.1759.4143.3104.6589.3951.2446.0847.5041.1177.7621.0969.475.02.94-.14 1.296-.446.155-.142.277-.316.356-.508.079-.193.113-.4.1-.608.008-.2076-.0285-.4146-.1072-.6069-.0786-.1923-.1976-.3656-.3488-.5081-.3261-.3058-.7167-.5344-1.143-.669l-1.524-.446-1.676-.52-1.523-.744c-.49-.3082-.8855-.7456-1.143-1.264-.2482-.5866-.3528-1.2239-.305-1.859-.0237-.6714.116-1.3385.407-1.944.294-.6104.7294-1.1417 1.27-1.55 1.2019-.9133 2.6812-1.3857 4.19-1.338 1.4537-.066 2.8917.3238 4.113 1.115.5463.4201.9844.9645 1.278 1.588.292.62.428 1.299.398 1.98h-4.19c-.0279-.4696-.2161-.9154-.533-1.263-.1673-.1418-.3618-.2479-.5716-.3119s-.4304-.0844-.6484-.0601h.001zm13.103 6.691v6.022h-3.885v-15.464h6.247c1.549-.08 3.071.4242 4.266 1.413.486.418.874.933 1.137 1.51.263.578.395 1.204.387 1.836-.018.9307-.31 1.8355-.838 2.602-.663.9123-1.64 1.5475-2.743 1.784l3.885 6.32H103.3l-3.58-6.023h-.459zm0-6.616v3.717h2.362c.253.01.505-.03.742-.12.236-.09.45-.226.63-.4.175-.178.312-.388.404-.617.091-.23.135-.475.128-.722.007-.2465-.037-.4918-.128-.721-.092-.2307-.23-.4406-.405-.617-.18-.1751-.395-.3113-.63-.4-.236-.0897-.488-.1305-.741-.12H99.26h.001zm21.331 12.638l-.914-2.602h-5.714l-.914 2.602h-4.114l5.485-15.538h4.723l5.485 15.538h-4.037zm-5.638-5.501h3.733l-1.828-5.428-1.905 5.428zm22.018-10.037h3.885v15.538h-3.885l-6.476-9.813v9.813h-3.885v-15.538h3.885l6.476 9.814v-9.814zm11.121 15.538h-3.885v-15.464h3.885v6.766l5.257-6.766h5.104l-6.552 7.732 6.552 7.732h-4.952l-5.333-6.84-.076 6.84zm15.77-2.007c-.015.4633-.192.9067-.5 1.253-.312.3507-.734.5848-1.197.664-.465.0808-.944.0026-1.359-.222-.411-.2217-.732-.5785-.91-1.01-.175-.4271-.194-.9023-.054-1.342.141-.44.433-.82.827-1.076.396-.255.866-.3694 1.334-.3247.469.0446.909.2456 1.249.5707.201.194.359.426.464.682.105.256.154.53.146.805z" fill="#19223C"/><path d="M166.301 79.7682v-15.464h3.885v15.464h-3.885zm8.761-2.081c-1.506-1.5102-2.354-3.555-2.358-5.688 0-2.122.846-4.162 2.358-5.687 1.583-1.4433 3.648-2.2417 5.79-2.238 2.151 0 4.222.8 5.79 2.238 1.506 1.51 2.354 3.5544 2.358 5.687-.004 2.133-.852 4.1778-2.358 5.688-1.574 1.4602-3.643 2.2699-5.79 2.266-2.147.0039-4.216-.8058-5.79-2.266zm8.837-2.454c.733-.9185 1.132-2.0581 1.134-3.233 0-1.17-.399-2.308-1.134-3.234-.82-.7842-1.912-1.221-3.047-1.219-1.14 0-2.235.438-3.047 1.22-.733.9185-1.132 2.0582-1.134 3.233 0 1.171.399 2.309 1.134 3.234.82.7843 1.912 1.2211 3.047 1.219 1.14 0 2.235-.438 3.047-1.219v-.001z" fill="#67A4AC"/><path d="M97.13.0691475L56.785 24.8201c-1.901 1.12-2.83 2.376-2.784 3.766v3.767c.045 1.39.996 2.623 2.852 3.699l19.968 11.232c.1183.067.2495.108.3849.1203.1353.0123.2718-.0043.4002-.0487.1285-.0445.246-.1158.3447-.2091.0988-.0934.1766-.2067.2282-.3325l4.483-10.5599-9.509-5.2461c-.2724-.1375-.5025-.3462-.666-.604-.1222-.192-.2038-.4071-.2398-.6318-.036-.2248-.0257-.4546.0303-.6752.056-.2207.1565-.4275.2954-.6079s.3131-.3305.5121-.4411l17.455-10.425L97.741.540147c.0291-.080215.0318-.167642.0077-.249504-.0241-.081862-.0737-.153868-.1417-.2054955-.068-.052347-.1507-.08204754-.2364-.08491791-.0858-.00287037-.1703.02123411-.2416.06891791h.001z" fill="#19223C"/><path d="M131.1 13.5733L111.077 1.93725c-.116-.06885-.245-.11309-.379-.12996-.134-.01688-.27-.00604-.399.03185-.13.03789-.25.10202-.354.1884-.103.08638-.188.19316-.249.31371l-4.695 10.56005 9.528 5.447c.274.144.503.358.663.619.159.2593.243.5574.243.8615 0 .304-.084.6021-.243.8615-.16.26-.389.474-.663.618l-17.8829 10.088-7.595 16.95c-.0361.0393-.0638.0856-.0816.1359-.0178.0503-.0252.1037-.022.157.0033.0532.0172.1053.041.1531.0238.0478.057.0903.0975.125.0831.0716.1907.1083.3002.1021.1095-.0062.2124-.0546.2868-.1351l13.119-7.6 5.178 7.1289c.114.1661.268.302.449.396.18.093.382.1421.587.1421h12.428c.225 0 .446-.059.64-.171.193-.113.351-.275.458-.468.106-.1928.156-.4113.145-.631-.011-.2197-.083-.432-.208-.613l-8.423-12.376 17.054-9.887c1.933-1.12 2.9-2.376 2.9-3.766v-3.7c0-1.39-.967-2.645-2.9-3.766z" fill="#67A4AC"/></svg>

<svg width="189" height="80" viewBox="0 0 189 80" fill="none" xmlns="http://www.w3.org/2000/svg">
<path d="M2.358 77.6872C0.851696 76.177 0.00401283 74.1322 0 71.9992C0 69.8772 0.846 67.8372 2.358 66.3122C3.12556 65.5788 4.03105 65.005 5.022 64.6242C6.01854 64.2408 7.08054 64.0563 8.148 64.0812C9.82135 64.041 11.4677 64.5077 12.871 65.4202C14.2412 66.3155 15.263 67.6536 15.766 69.2112H11.12C10.8618 68.6759 10.4504 68.2293 9.938 67.9282C9.42032 67.6232 8.82528 67.4748 8.225 67.5012C7.64808 67.4697 7.07097 67.5596 6.531 67.7652C5.99401 67.9689 5.50654 68.2845 5.101 68.6912C4.36858 69.6101 3.96919 70.7501 3.968 71.9252C3.968 73.0952 4.367 74.2332 5.102 75.1592C5.505 75.5642 5.992 75.8792 6.532 76.0852C7.07166 76.2906 7.64841 76.3806 8.225 76.3492C8.811 76.3882 9.395 76.2612 9.909 75.9842C10.4195 75.7101 10.84 75.2944 11.12 74.7872H15.691C15.1882 76.3451 14.1663 77.6835 12.796 78.5792C11.3926 79.4913 9.74624 79.9577 8.073 79.9172C7.01836 79.9323 5.97076 79.7432 4.988 79.3602C4.01071 78.9798 3.11752 78.4114 2.359 77.6872H2.358ZM19.652 77.6872C18.1453 76.1771 17.2973 74.1323 17.293 71.9992C17.293 69.8772 18.139 67.8372 19.652 66.3122C21.2345 64.8689 23.3001 64.0704 25.442 64.0742C27.592 64.0742 29.663 64.8742 31.232 66.3122C32.7381 67.8222 33.5857 69.8665 33.59 71.9992C33.5857 74.1323 32.7377 76.1771 31.231 77.6872C29.6569 79.1474 27.5881 79.9571 25.441 79.9532C23.2939 79.9571 21.2251 79.1474 19.651 77.6872H19.652ZM28.489 75.2332C29.2216 74.3147 29.6213 73.1751 29.623 72.0002C29.623 70.8302 29.223 69.6922 28.489 68.7662C27.6684 67.9817 26.5763 67.5449 25.441 67.5472C24.301 67.5472 23.206 67.9852 22.394 68.7672C21.6614 69.6857 21.2617 70.8253 21.26 72.0002C21.26 73.1712 21.659 74.3092 22.394 75.2342C23.2143 76.0184 24.3061 76.4552 25.441 76.4532C26.581 76.4532 27.676 76.0152 28.489 75.2342V75.2332ZM41.592 64.3042C43.8706 64.2172 46.0991 64.9863 47.839 66.4602C48.6057 67.1778 49.2182 68.0441 49.639 69.0062C50.0562 69.9619 50.2716 70.9934 50.2716 72.0362C50.2716 73.079 50.0562 74.1105 49.639 75.0662C49.2182 76.0283 48.6057 76.8946 47.839 77.6122C46.1029 79.0927 43.8717 79.8628 41.592 79.7682H36.031V64.3042H41.592ZM39.84 76.9442H41.592C42.24 76.9813 42.8886 76.8808 43.495 76.6492C44.0976 76.4199 44.6439 76.0638 45.097 75.6052C45.539 75.1261 45.8812 74.5637 46.1035 73.951C46.3258 73.3382 46.4239 72.6873 46.392 72.0362C46.4238 71.3853 46.3256 70.7346 46.1033 70.122C45.881 69.5094 45.5389 68.9472 45.097 68.4682C44.6439 68.0095 44.0976 67.6535 43.495 67.4242C42.8885 67.1929 42.24 67.0927 41.592 67.1302H39.84V76.9432V76.9442ZM62.313 64.2302V67.1302H56.599V70.4752H61.703V73.3752H56.6V76.9432H62.314V79.8432H52.715V64.2302H62.313ZM69.55 73.7462V79.7682H65.665V64.3042H71.912C73.4608 64.2242 74.9832 64.7284 76.178 65.7172C76.664 66.1352 77.052 66.6502 77.315 67.2272C77.578 67.8052 77.71 68.4312 77.702 69.0632C77.6836 69.9939 77.3922 70.8987 76.864 71.6652C76.2007 72.5775 75.2239 73.2127 74.121 73.4492L78.006 79.7692H73.588L70.008 73.7462H69.55ZM69.55 67.1302V70.8472H71.912C72.165 70.8572 72.417 70.8172 72.654 70.7272C72.89 70.6372 73.104 70.5012 73.284 70.3272C73.459 70.1492 73.596 69.9392 73.688 69.7102C73.779 69.4802 73.823 69.2352 73.816 68.9882C73.8227 68.7417 73.7791 68.4964 73.688 68.2672C73.5957 68.0365 73.458 67.8266 73.283 67.6502C73.1026 67.4751 72.8882 67.3389 72.653 67.2502C72.4166 67.1605 72.1646 67.1197 71.912 67.1302H69.55ZM86.158 67.0552C85.7202 67.0315 85.2881 67.1633 84.938 67.4272C84.779 67.5652 84.654 67.7382 84.575 67.9322C84.495 68.1252 84.464 68.3342 84.482 68.5422C84.4786 68.7493 84.5174 68.955 84.5959 69.1466C84.6745 69.3383 84.7912 69.512 84.939 69.6572C85.259 69.9672 85.651 70.1962 86.082 70.3272L87.605 70.7722L89.281 71.2922L90.805 72.0362C91.292 72.3532 91.686 72.7892 91.948 73.3002C92.258 73.9002 92.414 74.5622 92.405 75.2332C92.399 75.8791 92.2451 76.515 91.955 77.0922C91.6631 77.6736 91.2441 78.1818 90.729 78.5792C89.5031 79.5659 87.9577 80.0683 86.386 79.9912C84.8379 80.0699 83.3083 79.625 82.044 78.7282C81.4977 78.3081 81.0596 77.7637 80.766 77.1402C80.475 76.5218 80.3384 75.842 80.368 75.1592H84.482C84.47 75.4132 84.514 75.6662 84.61 75.9012C84.707 76.1372 84.854 76.3502 85.041 76.5262C85.2309 76.7021 85.4553 76.8366 85.6999 76.9213C85.9445 77.006 86.204 77.039 86.462 77.0182C86.937 77.0382 87.402 76.8782 87.758 76.5722C87.913 76.4302 88.035 76.2562 88.114 76.0642C88.193 75.8712 88.227 75.6642 88.214 75.4562C88.222 75.2486 88.1855 75.0416 88.1068 74.8493C88.0282 74.657 87.9092 74.4837 87.758 74.3412C87.4319 74.0354 87.0413 73.8068 86.615 73.6722L85.091 73.2262L83.415 72.7062L81.892 71.9622C81.402 71.654 81.0065 71.2166 80.749 70.6982C80.5008 70.1116 80.3962 69.4743 80.444 68.8392C80.4203 68.1678 80.56 67.5007 80.851 66.8952C81.145 66.2848 81.5804 65.7535 82.121 65.3452C83.3229 64.4319 84.8022 63.9595 86.311 64.0072C87.7647 63.9412 89.2027 64.331 90.424 65.1222C90.9703 65.5423 91.4084 66.0867 91.702 66.7102C91.994 67.3302 92.13 68.0092 92.1 68.6902H87.91C87.8821 68.2206 87.6939 67.7748 87.377 67.4272C87.2097 67.2854 87.0152 67.1793 86.8054 67.1153C86.5956 67.0513 86.375 67.0309 86.157 67.0552H86.158ZM99.261 73.7462V79.7682H95.376V64.3042H101.623C103.172 64.2242 104.694 64.7284 105.889 65.7172C106.375 66.1352 106.763 66.6502 107.026 67.2272C107.289 67.8052 107.421 68.4312 107.413 69.0632C107.395 69.9939 107.103 70.8987 106.575 71.6652C105.912 72.5775 104.935 73.2127 103.832 73.4492L107.717 79.7692H103.3L99.72 73.7462H99.262H99.261ZM99.261 67.1302V70.8472H101.623C101.876 70.8572 102.128 70.8172 102.365 70.7272C102.601 70.6372 102.815 70.5012 102.995 70.3272C103.17 70.1492 103.307 69.9392 103.399 69.7102C103.49 69.4802 103.534 69.2352 103.527 68.9882C103.534 68.7417 103.49 68.4964 103.399 68.2672C103.307 68.0365 103.169 67.8266 102.994 67.6502C102.814 67.4751 102.599 67.3389 102.364 67.2502C102.128 67.1605 101.876 67.1197 101.623 67.1302H99.26H99.261ZM120.592 79.7682L119.678 77.1662H113.964L113.05 79.7682H108.936L114.421 64.2302H119.144L124.629 79.7682H120.592ZM114.954 74.2672H118.687L116.859 68.8392L114.954 74.2672ZM136.972 64.2302H140.857V79.7682H136.972L130.496 69.9552V79.7682H126.611V64.2302H130.496L136.972 74.0442V64.2302ZM148.093 79.7682H144.208V64.3042H148.093V71.0702L153.35 64.3042H158.454L151.902 72.0362L158.454 79.7682H153.502L148.169 72.9282L148.093 79.7682ZM163.863 77.7612C163.848 78.2245 163.671 78.6679 163.363 79.0142C163.051 79.3649 162.629 79.599 162.166 79.6782C161.701 79.759 161.222 79.6808 160.807 79.4562C160.396 79.2345 160.075 78.8777 159.897 78.4462C159.722 78.0191 159.703 77.5439 159.843 77.1042C159.984 76.6642 160.276 76.2842 160.67 76.0282C161.066 75.7732 161.536 75.6588 162.004 75.7035C162.473 75.7481 162.913 75.9491 163.253 76.2742C163.454 76.4682 163.612 76.7002 163.717 76.9562C163.822 77.2122 163.871 77.4862 163.863 77.7612Z" fill="#19223C"/>
<path d="M166.301 79.7682V64.3042H170.186V79.7682H166.301ZM175.062 77.6872C173.556 76.177 172.708 74.1322 172.704 71.9992C172.704 69.8772 173.55 67.8372 175.062 66.3122C176.645 64.8689 178.71 64.0705 180.852 64.0742C183.003 64.0742 185.074 64.8742 186.642 66.3122C188.148 67.8222 188.996 69.8666 189 71.9992C188.996 74.1322 188.148 76.177 186.642 77.6872C185.068 79.1474 182.999 79.9571 180.852 79.9532C178.705 79.9571 176.636 79.1474 175.062 77.6872ZM183.899 75.2332C184.632 74.3147 185.031 73.1751 185.033 72.0002C185.033 70.8302 184.634 69.6922 183.899 68.7662C183.079 67.982 181.987 67.5452 180.852 67.5472C179.712 67.5472 178.617 67.9852 177.805 68.7672C177.072 69.6857 176.673 70.8254 176.671 72.0002C176.671 73.1712 177.07 74.3092 177.805 75.2342C178.625 76.0185 179.717 76.4553 180.852 76.4532C181.992 76.4532 183.087 76.0152 183.899 75.2342V75.2332Z" fill="#67A4AC"/>
<path d="M97.13 0.0691475L56.785 24.8201C54.884 25.9401 53.955 27.1961 54.001 28.5861V32.3531C54.046 33.7431 54.997 34.9761 56.853 36.0521L76.821 47.2841C76.9393 47.3511 77.0705 47.3921 77.2059 47.4044C77.3412 47.4167 77.4777 47.4001 77.6061 47.3557C77.7346 47.3112 77.8521 47.2399 77.9508 47.1466C78.0496 47.0532 78.1274 46.9399 78.179 46.8141L82.662 36.2542L73.153 31.0081C72.8806 30.8706 72.6505 30.6619 72.487 30.4041C72.3648 30.2121 72.2832 29.997 72.2472 29.7723C72.2112 29.5475 72.2215 29.3177 72.2775 29.0971C72.3335 28.8764 72.434 28.6696 72.5729 28.4892C72.7118 28.3088 72.886 28.1587 73.085 28.0481L90.54 17.6231L97.741 0.540147C97.7701 0.459932 97.7728 0.372505 97.7487 0.290643C97.7246 0.208781 97.675 0.136775 97.607 0.0851475C97.539 0.0328005 97.4563 0.00309996 97.3706 0.00022959C97.2848 -0.00264078 97.2003 0.0214637 97.129 0.0691475H97.13Z" fill="#19223C"/>
<path d="M131.1 13.5733L111.077 1.93725C110.961 1.8684 110.832 1.82416 110.698 1.80729C110.564 1.79041 110.428 1.80125 110.299 1.83914C110.169 1.87703 110.049 1.94116 109.945 2.02754C109.842 2.11392 109.757 2.2207 109.696 2.34125L105.001 12.9013L114.529 18.3483C114.803 18.4923 115.032 18.7063 115.192 18.9673C115.351 19.2266 115.435 19.5247 115.435 19.8288C115.435 20.1328 115.351 20.4309 115.192 20.6903C115.032 20.9503 114.803 21.1643 114.529 21.3083L96.6461 31.3963L89.0511 48.3463C89.015 48.3856 88.9873 48.4319 88.9695 48.4822C88.9517 48.5325 88.9443 48.5859 88.9475 48.6392C88.9508 48.6924 88.9647 48.7445 88.9885 48.7923C89.0123 48.8401 89.0455 48.8826 89.086 48.9173C89.1691 48.9889 89.2767 49.0256 89.3862 49.0194C89.4957 49.0132 89.5986 48.9648 89.673 48.8843L102.792 41.2843L107.97 48.4132C108.084 48.5793 108.238 48.7152 108.419 48.8092C108.599 48.9022 108.801 48.9513 109.006 48.9513H121.434C121.659 48.9513 121.88 48.8923 122.074 48.7803C122.267 48.6673 122.425 48.5053 122.532 48.3123C122.638 48.1195 122.688 47.901 122.677 47.6813C122.666 47.4616 122.594 47.2493 122.469 47.0683L114.046 34.6923L131.1 24.8053C133.033 23.6853 134 22.4293 134 21.0393V17.3393C134 15.9493 133.033 14.6943 131.1 13.5733Z" fill="#67A4AC"/>
</svg>
